!!!OTL-incipit: SO WILL ICH FRISCH UND FROEHLICH SEYN
!!!ARE: Europa, Mitteleuropa, Deutschland
!!!SCT: Z0292
!!!TXL: @@DE
!!!YEM: Copyright 1995, estate of Helmut Schaffrath.
**kern	**text
*ICvox	*
*M3/8	*
*k[f#]	*
*G:	*
!LO:TX:a:t=Altes Lied.	!
{8g	So
=1	=1
(8bL	will
8gJ)	.
8b/	ich
=2	=2
(8ddL	friſch
8bJ)	.
8dd	und
=3	=3
(8ggL	fröh-
8ff#J)	.
8ee	-lich
=4	=4
4dd}	ſeyn,
{8cc	ich
=5	=5
4b	hoff,
8a	mir
=6	=6
4g	ſoll's
8bL/	ge-
=7	=7
4.a	-lin-
=8	=8
4d}	-gen;
{8g	Ʒu
=9	=9
(8bL	Dienſt
8gJ)	.
8b/	der
=10	=10
(8ddL	Al-
8bJ)	.
8dd	-ler-
=11	=11
(8ggL	-lieb-
8ff#J)	.
8ee	-ſten
=12	=12
4dd}	mein,
{8cc	will
=13	=13
4b	ich
8a	jetʒt
=14	=14
4g	fröh-
8b/	-lich
=15	=15
4.a	ſin-
=16	=16
4d}	-gen;
{8d	mein
=17	=17
(8ddL	Herʒ
8ccJ)	.
8b	das
=18	=18
(8bL	iſt
8ccJ)	.
8dd	in
=19	=19
4cc	Freu-
8cc	-den
=20	=20
4cc}	ganʒ,
{8b	wenn
=21	=21
4cc	ich
8b	ſie
=22	=22
4a	an
8g	thu
=23	=23
4.dd	blik-
=24	=24
4d}	-ken,
{8dd	ſie
=25	=25
(8ddL	leuch-
8ccJ)	.
8b	-tet
=26	=26
(8bL	als
8ccJ)	.
8dd	der
=27	=27
4cc	Son-
8cc	-nen-
=28	=28
4cc}	-glanʒ,
{8cc	möcht
=29	=29
8ccL	mit
8bJ	.
8a	ihr
=30	=30
8aL	tan-
8bJ	.
8cc	-ʒen
=31	=31
4b	ei-
8b	-nen
=32	=32
4b}	Tanʒ,
{8dd	mein
=33	=33
4cc	Herʒ
8b	mit
=34	=34
4a	ihr
8g	ver-
=35	=35
4.a	-ſtrik-
=36	=36
4g}	-ken.
==	==
!!!AGN: Lyrisches Lied, Romanze
!!!ONB: ESAC (Essen Associative Code) Database: ZUCCAL
!!!AMT: simple triple
!!!AIN: vox
!!!EED: Helmut Schaffrath
!!!EEV: 1.0
!!!GTL: IV. Lyrische Lieder.
!!!URL-scan: https://www.digitale-sammlungen.de/de/view/bsb11160571?page=526
!!!ENC: Anna Maria Matuszewska
!!!EEV: 2025/01/31
*-	*-
